usr/share/icons/biglinux-icons-material/16/actions/view-time-schedule-baselined-remove.svg

<svg version="1.1" viewBox="0 0 16 16" xmlns="http://www.w3.org/2000/svg">
 <defs>
  <style id="current-color-scheme" type="text/css">.ColorScheme-Text {
        color:#363636;
      }
      .ColorScheme-NegativeText {
        color:#da4453;
      }</style>
 </defs>
 <path class="ColorScheme-Text" d="m3 6v3h1v-1h3v1h1v-3h-1v1h-3v-1z" fill="currentColor"/>
 <path class="ColorScheme-NegativeText" d="m12.5 9c-1.933 0-3.5 1.567-3.5 3.5s1.567 3.5 3.5 3.5 3.5-1.567 3.5-3.5-1.567-3.5-3.5-3.5zm-1.666 1 1.666 1.666 1.666-1.666 0.83398 0.83398-1.666 1.666 1.666 1.666-0.83398 0.83398-1.666-1.666-1.666 1.666-0.83398-0.83398 1.666-1.666-1.666-1.666z" fill="currentColor"/>
 <path d="m2 1c-1.108 0-2 0.892-2 2v10c0 1.108 0.892 2 2 2h6.7617c-0.20691-0.31135-0.37421-0.64727-0.49805-1h-6.2637c-0.554 0-1-0.446-1-1v-8c0-0.554 0.446-1 1-1h11c0.554 0 1 0.446 1 1v3.2637c0.35263 0.12322 0.68855 0.28986 1 0.49609v-5.7598c0-1.108-0.892-2-2-2h-11z" class="ColorScheme-Text" fill="currentColor"/>
</svg>

<svg xmlns="http://www.w3.org/2000/svg" viewBox="0 0 16 16"><defs><style id="current-color-scheme" type="text/css">.ColorScheme-Text{color:#dedede}</style></defs><path fill="currentColor" d="M3 6v3h1V8h3v1h1V6H7v1H4V6z" class="ColorScheme-Text"/><path fill="currentColor" d="M12.5 9a3.5 3.5 0 1 0 0 7 3.5 3.5 0 0 0 0-7zm-1.666 1 1.666 1.666L14.166 10l.834.834-1.666 1.666L15 14.166l-.834.834-1.666-1.666L10.834 15 10 14.166l1.666-1.666L10 10.834z" style="color:#da4453"/><path fill="currentColor" d="M2 1C.892 1 0 1.892 0 3v10c0 1.108.892 2 2 2h6.762a4.5 4.5 0 0 1-.498-1H2c-.554 0-1-.446-1-1V5c0-.554.446-1 1-1h11c.554 0 1 .446 1 1v3.264a4.5 4.5 0 0 1 1 .496V3c0-1.108-.892-2-2-2H2z" class="ColorScheme-Text"/></svg>
